!!!CDT:
!!!PTL: Li diversi scherzi a una, a due, a tre et quattro voci. Libro quarto 
!!!PPP: Rome
!!!PPR: Giovanni Battista Robletti
!!!PDT: 1615
!!!RISM: C 2219
!!!rime:
!!!AGN: Madrigal
!!!SCT: Tsg04030a
!!!SCA: Tsg04030a
!!!voices:
!!!COM: Cifra, Antonio
!!!OTL: Fa nove crespe l'aura al crin disciolto
**kern	**kern	**text	**kern	**text
*part3	*part2	*part2	*part1	*part1
*staff3	*staff2	*staff2	*staff1	*staff1
*I"Basso continuo	*I"Canto II	*	*I"Canto I	*
*I'Bc	*I'C II	*	*I'C I	*
*oclefF4	*oclefC1	*	*oclefC1	*
*clefF4	*clefG2	*	*clefG2	*
*k[b-]	*k[b-]	*	*k[b-]	*
*F:	*F:	*	*F:	*
*omet(C)	*omet(C)	*	*omet(C)	*
*M4/4	*M4/4	*	*M4/4	*
=1	=1	=1	=1	=1
!!LO:TX:a:t=Aria di Romanesca a 2. Soprani. [Prima stanza]
1BB-y	2r	.	2r	.
.	[2dd	Fa	[2ff	Fa
=2	=2	=2	=2	=2
2BB-y	4dd]	.	4ff]	.
.	8cc	no-	8ee-X	no-
.	8b-y	-ve	8dd	-ve
2BB-y	4dd	cre-	4ff	cre-
.	4b-y	-spe	4dd	-spe
=3	=3	=3	=3	=3
2F	4a	l'au-	4cc	l'au-
.	16aL	-ra al	16fL	-ra al
.	16g	.	16enXi	.
.	16a	.	16f	.
.	16b-yJ	.	16gJ	.
4F	2cc	crin,	2a	crin,
[4F	.	.	.	.
=4	=4	=4	=4	=4
4F]	4r	.	4r	.
4F	16ddL	al	16ffL	al
.	16cc	.	16ee	.
.	16b-y	.	16dd	.
.	16aJ	.	16ccJ	.
2G	[2b-y	crin	2ee-X	crin
=5	=5	=5	=5	=5
2D	4b-]	.	4dd	di-
.	16aL	di-	2dd	-sciol-
.	16b-y	.	.	.
.	16cc	.	.	.
.	16b-yJ	.	.	.
2E-X	2g	-sciol-	.	.
.	.	.	16ccL	.
.	.	.	16b-y	.
.	.	.	16a	.
.	.	.	16gJ	.
=6	=6	=6	=6	=6
2.D	2f#X	-to,	1a	-to,
.	4r	.	.	.
4D	[4ffnXi	Che	.	.
=7	=7	=7	=7	=7
4D	4ff]	.	1r	.
4C	4ee-X	na-	.	.
[2BB-y	[2dd	-tu-	.	.
=8	=8	=8	=8	=8
4BB-]	4dd]	.	2ff	Che
4AA	8cc	-ra	.	.
.	8b-y	per	.	.
2GG	2b-y	sé	4ee-X	na-
.	.	.	[4dd	-tu-
=9	=9	=9	=9	=9
2FF	4r	.	4dd]	.
.	4f	rin-	8cc	-ra
.	.	.	8b-y	per
2F	8ccL	-cre-	4a	sé
.	8b-yJ	.	.	.
.	8ccL	.	4f	rin-
.	8aJ	.	.	.
=10	=10	=10	=10	=10
2F	8ddL	.	8ffL	-cre-
.	8ccJ	.	8eeJ	.
.	8ddL	.	8ffL	.
.	8aJ	.	8ddJ	.
2G	8b-yL	.	8ee-XL	.
.	8aJ	.	8ddJ	.
.	8b-yL	.	8ee-iL	.
.	8gJ	.	8b-yJ	.
=11	=11	=11	=11	=11
2C	8a	.	4.cc	.
.	8g	-spa in	.	.
.	2g	on-	.	.
.	.	.	8b-y	-spa in
2D	.	.	2a	on-
.	4f#X	.	.	.
=12	=12	=12	=12	=12
4GG	2g	-de,	2g	-de,
2G	.	.	.	.
.	4r	.	2r	.
4F#X	[4dd	Che	.	.
=13	=13	=13	=13	=13
4G	4dd]	.	2r	.
4A	4cc	na-	.	.
[2B-y	4dd	-tu-	4r	.
.	8dd	-ra	[4dd	Che
.	8ee	per	.	.
=14	=14	=14	=14	=14
4B-]	2ff	sé	4dd]	.
4A	.	.	4cc	na-
2G	4r	.	4cc	-tu-
.	4g	rin-	8dd	-ra
.	.	.	8ee	per
=15	=15	=15	=15	=15
[1F	8aL	-cre-	4ff	sé
.	8gJ	.	.	.
.	8aL	.	4f	rin-
.	8fJ	.	.	.
.	8ccL	.	8aL	-cre-
.	8b-yJ	.	8gJ	.
.	8ccL	.	8aL	.
.	8aJ	.	8fJ	.
=16	=16	=16	=16	=16
2F]	8ffL	.	8ccL	.
.	8eeJ	.	8b-yJ	.
.	8ffL	.	8ccL	.
.	8ccJ	.	8aJ	.
2G	8ee-XL	.	8b-yL	.
.	8ddJ	.	8aJ	.
.	8ee-iL	.	8b-yL	.
.	8b-yJ	.	8gJ	.
=17	=17	=17	=17	=17
2C	4.cc	.	8a	.
.	.	.	8g	-spa in
.	.	.	2g	on-
.	8a	-spa in	.	.
2D	2a	on-	.	.
.	.	.	4f#X	.
=18	=18	=18	=18	=18
1GG	1g	-de.	1g	-de.
=19||	=19||	=19||	=19||	=19||
!!LO:TX:a:t=Seconda stanza.
1B-y	1r	.	2r	.
.	.	.	[2ff	Stas-
=20	=20	=20	=20	=20
2A	2r	.	4ff]	.
.	.	.	8ee-X	-si
.	.	.	8dd	l'a-
2G	[2b-y	Stas-	4.ff	-va-
.	.	.	8b-y	-ro
=21	=21	=21	=21	=21
2F	4b-]	.	4dd	sguar-
.	8a	-si	4cc	-do
.	8g	l'a-	.	.
4F	4a	-va-	4r	.
[4F	4f	-ro	4ff	in
=22	=22	=22	=22	=22
4F]	4a	sguar-	2cc	sé,
4F	4ff	-do in	.	.
2G	[2b-y	sé	4r	.
.	.	.	4dd	in
=23	=23	=23	=23	=23
2D	4b-]	.	4.f#X	sé
.	4a	rac-	.	.
.	.	.	8f#i	rac-
2E-X	2g	-col-	2g	-col-
=24	=24	=24	=24	=24
2.D	2a	-to,	2f#X	-to,
.	2r	.	4r	.
4D	.	.	8ffnXi	E i
.	.	.	8dd	te-
=25	=25	=25	=25	=25
4D	2r	.	4ff	-so-
4C	.	.	8.ee-X	-ri
.	.	.	16dd	d'a-
[2BB-y	4r	.	4dd	-mo-
.	8ff	E i	4dd	-re,
.	8dd	te-	.	.
=26	=26	=26	=26	=26
4BB-]	4ff	-so-	1r	.
4C	8.ee-X	-ri	.	.
.	16dd	d'a-	.	.
4D	4dd	-mo-	.	.
4E	16ccL	-re e i	.	.
.	16b-y	.	.	.
.	16a	.	.	.
.	16gJ	.	.	.
=27	=27	=27	=27	=27
[1F	4a	suoi,	4r	.
.	8a	E i	8cc	<E i
.	8f	te-	8a	te-
.	4a	-so-	4cc	-so-
.	8.g	-ri	8.b-y	-ri
.	16f	d'a-	16a	d'a-
=28	=28	=28	=28	=28
2F]	4f	-mo-	4a	-mo-
.	4f	-re	16ddL	-re> e i
.	.	.	16cc	.
.	.	.	16b-y	.
.	.	.	16aJ	.
2G	4r	.	[2b-y	suoi
.	16gL	e i	.	.
.	16f	.	.	.
.	16e	.	.	.
.	16dJ	.	.	.
=29	=29	=29	=29	=29
2C	8e	suoi	4b-]	.
.	8f	na-	.	.
.	2g	-scon-	16aL	na-
.	.	.	16b-y	.
.	.	.	16cc	.
.	.	.	16b-yJ	.
2D	.	.	2a	-scon-
.	4f#X	.	.	.
=30	=30	=30	=30	=30
4GG	2g	-de,	2g	-de,
2G	.	.	.	.
.	2r	.	4r	.
4F#X	.	.	8dd	E i
.	.	.	8a	te-
=31	=31	=31	=31	=31
4G	1r	.	4b-y	-so-
4A	.	.	8a	-ri
.	.	.	8g	d'a-
[2B-y	.	.	4f	-mo-
.	.	.	4f	-re,
=32	=32	=32	=32	=32
4B-]	4r	.	1r	.
4A	8ff	E i	.	.
.	8cc	te-	.	.
2G	4dd	-so-	.	.
.	8cc	-ri	.	.
.	8b-y	d'a-	.	.
=33	=33	=33	=33	=33
[1F	4a	-mo-	4r	.
.	4a	-re	8ff	<E i
.	.	.	8cc	te-
.	2r	.	4dd	-so-
.	.	.	8cc	-ri
.	.	.	8b-y	d'a-
=34	=34	=34	=34	=34
2F]	4r	.	4a	-mo-
.	16ddL	e i	4a	-re>
.	16cc	.	.	.
.	16b-y	.	.	.
.	16aJ	.	.	.
2G	2b-y	suoi	4r	.
.	.	.	16gL	e i
.	.	.	16f	.
.	.	.	16e	.
.	.	.	16dJ	.
=35	=35	=35	=35	=35
2C	4r	.	8e	suoi
.	.	.	8f	na-
.	16aL	na-	2g	-scon-
.	16b-y	.	.	.
.	16cc	.	.	.
.	16b-yJ	.	.	.
2D	2a	-scon-	.	.
.	.	.	4f#X	.
=36	=36	=36	=36	=36
1GG	1g	-de.	1g	-de.
=37||	=37||	=37||	=37||	=37||
!	!	!	!LO:TX:a:t=Terza stanza.	!
1BB-y	2r	.	1r	.
.	[2b-y	Dol-	.	.
=38	=38	=38	=38	=38
2BB-y	4b-]	.	2r	.
.	8a	-ce	.	.
.	8g	co-	.	.
2BB-y	4f	-lor	[2ff	Dol-
.	4g	di	.	.
=39	=39	=39	=39	=39
2F	2.a	ro-	4ff]	.
.	.	.	8ee	-ce
.	.	.	8dd	co-
4F	.	.	4cc	-lor
[4F	4b-y	-se in	4dd	di
=40	=40	=40	=40	=40
4F]	4cc	quel	4a	ro-
4F	4a	bel	2cc	-se in
2G	2d	vol-	.	.
.	.	.	[4b-y	quel
=41	=41	=41	=41	=41
2D	4d	-to,	4b-]	.
.	2d	bel	4a	bel
2E-X	.	.	2g	vol-
.	4c	vol-	.	.
=42	=42	=42	=42	=42
2.D	2d	-to	2f#X	-to
.	4r	.	2r	.
4D	8a	Fra	.	.
.	8g	l'a-	.	.
=43	=43	=43	=43	=43
4D	4f	-vo-	1r	.
4C	8g	-rio	.	.
.	8a	si	.	.
[2BB-y	8b-yL	spar-	.	.
.	8ccJ	.	.	.
.	8ddL	.	.	.
.	8eeJ	.	.	.
=44	=44	=44	=44	=44
4BB-]	8ffL	.	1r	.
.	8ggJ	.	.	.
4C	8ee-XL	.	.	.
.	8ffJ	.	.	.
4D	8ddL	.	.	.
.	8ffJ	.	.	.
4E	8eenXiL	.	.	.
.	8ddJ	.	.	.
=45	=45	=45	=45	=45
1F	8ccL	.	4r	.
.	8b-yJ	.	.	.
.	8aL	.	8cc	Fra
.	8b-yJ	.	8b-y	l'a-
.	8ccL	.	4a	-vo-
.	8ddJ	.	.	.
.	8ccL	.	8a	-rio
.	8b-yJ	.	8b-y	si
=46	=46	=46	=46	=46
2F	4a	.	8ccL	spar-
.	.	.	16dd	.
.	.	.	16eeJ	.
.	2a	-ge e	4ff	.
2G	.	.	[2dd	-ge e
.	8g	si	.	.
.	8f	con-	.	.
=47	=47	=47	=47	=47
2C	8eL	-fon-	4dd]	.
.	8fJ	.	.	.
.	2g	.	8cc	si
.	.	.	8b-y	con-
2D	.	.	2a	-fon-
.	4f#X	.	.	.
=48	=48	=48	=48	=48
4GG	2g	-de,	2g	-de,
2G	.	.	.	.
.	2r	.	4r	.
4F#X	.	.	8dd	Fra
.	.	.	8cc	l'a-
=49	=49	=49	=49	=49
4G	2r	.	4b-y	-vo-
4A	.	.	8cc	-rio
.	.	.	8cc	si
2B-y	4r	.	8ddL	spar-
.	.	.	8eeJ	.
.	8dd	Fra	8ddL	.
.	8cc	l'a-	8eeJ	.
=50	=50	=50	=50	=50
4B-y	4b-y	-vo-	4ff	.
4A	8cc	-rio	4f	-ge,
.	8dd	si	.	.
2G	16ee-XL	spar-	2r	.
.	16dd	.	.	.
.	16dd	.	.	.
.	16ccJ	.	.	.
.	4b-y	.	.	.
=51	=51	=51	=51	=51
[1F	4cc	-ge,	4r	.
.	8a	<Fra	8cc	<Fra
.	8g	l'a-	8b-y	l'a-
.	4f	-vo-	4a	-vo-
.	8f	-rio	8a	-rio
.	8g	si	8b-y	si
=52	=52	=52	=52	=52
2F]	8aL	spar-	[2cc	spar-
.	8gJ	.	.	.
.	8fL	.	.	.
.	8eJ	.	.	.
2G	4.d	.	8cc]	.
.	.	.	8b-y	-ge> e
.	.	.	8b-y	si
.	8d	-ge> e	8a	con-
=53	=53	=53	=53	=53
2C	8e	si	1a	-fon-
.	8f	con-	.	.
.	2g	-fon-	.	.
2D	.	.	.	.
.	4f#i	.	.	.
=54	=54	=54	=54	=54
1GG	1g	-de.	1g	-de.
=55||	=55||	=55||	=55||	=55||
!!LO:TX:a:t=Quarta, & ultima stanza.
1B-y	1r	.	2r	.
.	.	.	[2dd	Ma
=56	=56	=56	=56	=56
2A	2r	.	4dd]	.
.	.	.	8cc	ne
.	.	.	8cc	la
2G	[2b-y	Ma	2ee-X	boc-
=57	=57	=57	=57	=57
2F	4b-]	.	1cc	-ca,
.	8a	ne	.	.
.	8a	la	.	.
4F	2cc	boc-	.	.
[4F	.	.	.	.
=58	=58	=58	=58	=58
4F]	4a	-ca,	4r	.
4F	8r	.	4ff	on-
.	8cc	on-	.	.
2G	4b-y	-de e-	4ee-X	-de e-
.	[4g	-sce au-	[4dd	-sce au-
=59	=59	=59	=59	=59
2D	4g]	.	4dd]	.
.	8f#i	-ra a-	8b-y	-ra a-
.	8f#X	-mo-	8a	-mo-
2E-X	2g	-ro-	2cc	-ro-
=60	=60	=60	=60	=60
2.D	2f#X	-sa,	1a	-sa,
.	2r	.	.	.
4D	.	.	.	.
=61	=61	=61	=61	=61
4D	1r	.	4r	.
4C	.	.	4cc	So-
[2BB-y	.	.	8ddL	-la
.	.	.	8eeJ	.
.	.	.	8ffL	.
.	.	.	8eeJ	.
=62	=62	=62	=62	=62
4BB-]	2r	.	4dd	.
4AA	.	.	4cc	ros-
2GG	4r	.	2b-y	-seg-
.	4g	So-	.	.
=63	=63	=63	=63	=63
1FF	8aL	-la	1cc	-gia
.	8b-yJ	.	.	.
.	8ccL	.	.	.
.	8b-yJ	.	.	.
.	4a	.	.	.
.	4g	ros-	.	.
=64	=64	=64	=64	=64
2F	4f	-seg-	2r	.
.	4a	-gia e	.	.
2G	4.b-y	sem-	4r	.
.	.	.	4dd	e
.	8a	-pli-	.	.
=65	=65	=65	=65	=65
2C	8g	-ce	8ee-X	sem-
.	8f	la	8dd	-pli-
.	2g	ro-	8cc	-ce
.	.	.	8b-y	la
2D	.	.	2a	ro-
.	4f#X	.	.	.
=66	=66	=66	=66	=66
4GG	2g	-sa,	2g	-sa,
2G	.	.	.	.
.	2r	.	2r	.
4F#X	.	.	.	.
=67	=67	=67	=67	=67
4G	1r	.	4r	.
4A	.	.	4cc	So-
[2B-y	.	.	8ddL	-la
.	.	.	8eeJ	.
.	.	.	8ddL	.
.	.	.	8eeJ	.
=68	=68	=68	=68	=68
4B-]	2r	.	4ff	.
4A	.	.	4cc	.
2G	4r	.	4.cc	ros-
.	4g	So-	.	.
.	.	.	8b-y	-seg-
=69	=69	=69	=69	=69
[1F	8aL	-la	2cc	-gia
.	8b-yJ	.	.	.
.	8aL	.	.	.
.	8b-yJ	.	.	.
.	4cc	.	2r	.
.	4a	ros-	.	.
=70	=70	=70	=70	=70
2F]	4dd	-seg-	4r	.
.	4cc	-gia e	4a	e
2G	4.ee-X	sem-	4.b-y	sem-
.	8dd	-pli-	8a	-pli-
=71	=71	=71	=71	=71
2C	4cc	-ce	8g	-ce
.	.	.	8f	la
.	4b-y	la	2g	ro-
2D	2a	ro-	.	.
.	.	.	4f#X	.
=72	=72	=72	=72	=72
1GGl	1gl	-sa.	1gl	-sa.
==	==	==	==	==
*-	*-	*-	*-	*-
!!!system-decoration: [*]
!!!RDF**kern: i = editorial accidental
!!!RDF**kern: l = terminal long
!!!ENC: Emiliano Ricciardi
!!!END:
!!!EED: Ricciardi, Emiliano
!!!EEV: 2020/02/09
!!!YEC: Copyright 2018 Emiliano Ricciardi, All Rights Reserved
!!!ONB: Translated from MusicXML on 2020/02/09
!!@@BEGIN:	VERSEDATA
!!@CATALOGNUM:	Tsg04030
!!@LAST_MODIFIED: 2020/07/12
!!@TITLE:		Fa nove crespe l'aura al crin disciolto
!!@CANTO:		IV
!!@OTTAVA:	30
!!@MANUSRC:	G-Al, G-Am, G-Au, G-Bm, G-Br<sub>1</sub>, G-Br<sub>2</sub>, G-Cv, G-Es<sub>1</sub>, G-Es<sub>2</sub>, G-Es<sub>3</sub>, G-F, G-Fr, G-Fr<sub>1</sub>, G-Fr<sub>2</sub>, G-Mc<sub>1</sub>, G-Mg, G-Mr, G-Mt, G-N
!!@PRINTSRC:	G-1580CM, G-1581B, G-1581CV, G-1581R, G-1581MR, G-1581P, G-1581V, G-1581V<sub>bis</sub>, G-1582C, G-1582M, G-1582MC, G-1582P, G-1582SC, G-1582SC<sub>bis</sub>, G-1583S, G-1584O, G-1584S, G-1585C, G-1585S, G-1588S, G-1589S, G-1590B, G-1590S, G-1592S, G-1593S, G-1594C, G-1595C, G-1597C, G-1598C, G-1599C, G-1600C, G-1600S, G-1601C, G-1601R, G-1602C, G-1604C, G-1604Cl, G-1604F, G-1604P, G-1606B, G-1606B<sub>bis</sub>, G-1606L, G-1607ZR, G-1608DP, G-1609GC, G-1610M, G-1611S, G-1611V, G-1612P, G-1613M, G-1613P, G-1613V, G-1615P, G-1616M, G-1617P, G-1619B, G-1619V, G-1620M, G-1620S, G-1621R, G-1624I, G-1624MT, G-1625C, G-1625S, G-1625SS, G-1626C, G-1626Co, G-1627M, G-1628T, G-1628Tu, G-1630L, G-1630T, G-1632FT, G-1639CF, G-1642M, G-1643I, G-1644P, G-1644S
!!@@BEGIN:	VERSES
!!@ABOUTIT:
!!@ABOUTEN:
!!@EDITOR:	Angelo Solerti
!!@EDITION_TITLE: Gerusalemme liberata. Poema eroico di Torquato Tasso. Edizione critica sui manoscritti e le prime stampe.
!!@EDITION_LOC:	Florence
!!@EDITION_PUB:	G. Barbera
!!@EDITION_DATE:  1895
!!@EDITION_VOL:	2
!!@EDITION_PAGE:  142
!!@TRANSLATOR:	Emiliano Ricciardi and Amyrose McCue Gill
!!@VERSE:
!!	Fa nove crespe l’aura al crin disciolto,
!!	Che natura per sé rincrespa in onde;
!!	Stassi l’avaro sguardo in sé raccolto,
!!	E i tesori d’Amore e i suoi nasconde.
!!	Dolce color di rose in quel bel vólto
!!	Fra l’avorio si sparge e si confonde:
!!	Ma nella bocca, ond’esce aura amorosa,
!!	Sola rosseggia e semplice la rosa.
!!@MVERSE_DATE: 20230824
!!@MVERSE:
!!	Fa no||ve cre||spe l’au||ra_al crin di|sciol||to,	=a
!!	Che na|tu||ra per sé rin|cre||spa_in on||de;		=b
!!	Stas||si l’a|va||ro sguar||do_in sé rac|col||to,	=a
!!	E_i te|so||ri d’A|mo||re_e_i suoi nas|con||de.		=b
!!	Dol||ce co|lor|| di ro||se_in quel bel vól||to		=a++ (V divided from DO)
!!	Fra l’a|vo||rio si spar||ge_e si con|fon||de:		=b
!!	Ma nel||la boc||ca,_ond’_e||sce_au||ra_a|mo|ro||sa,	=c (_ when there is ’?)
!!	So||la ros|seg||gia_e sem||pli|ce la ro||sa.		=c
!!@TVERSE:
!!	The breeze makes new curls in her unbound hair,
!!	Which nature for its part ripples in waves;
!!	There is the envious glance gathered to itself,
!!	And hides the treasures of Love and his [agents].
!!	Sweet color of roses in that beautiful face
!!	Among ivory it spreads and mingles:
!!	But upon her mouth, from which emerges loving breath,
!!	The rose blushes alone and simple.
!!@@END:		VERSES
!!@OTHER_CRIT_ED:  Torquato Tasso, <i>Gerusalemme liberata</i>, ed. Lanfranco Caretti, 2 vols. (Bari: Laterza, 1967).
!!@ATTRIBUTION_ABOUT:
!!@DATING:	mid-1560s through 1570s
!!@DEDICATEE:	Duke Alfonso II d'Este
!!@COMMENTARY:
!!@@END:		VERSEDATA
!!@@BEGIN: SETTING
!!@CATALOGNUM:	Tsg04030a
!!@CANTO:		IV
!!@OTTAVA:	30
!!@TITLE:	Fa nove crespe l'aura al crin disciolto
!!@COMPOSER:	Cifra, Antonio
!!@PARTS:		4 (verses 1-2; 3-4; 5-6; 7-8)
!!@PRINCEPSTITLE:	Li diversi scherzi a una, a due, a tre et quattro voci. Libro quarto 
!!@PRINCEPSLOC:	Rome
!!@NORMLOC:	Rome
!!@NORMPUB:	Giovanni Battista Robletti
!!@NORMPUBSHORT:	Robletti
!!@PRINCEPSPUB:	Giovanni Battista Robletti
!!@PRINCEPSYEAR:	1615
!!@PRINCEPSRISM:	C 2219
!!@OVOICES:	2+bc
!!@EXTANTVOICES:	2+bc
!!@OMENSURATION:	C
!!@OCLEFS:	C1,C1,F4
!!@OTIME:		
!!@OKEYSIG:	b-
!!@FINAL:		(G)(G)(G)G
!!@TIMPEDITOR:	Ricciardi, Emiliano
!!@REPRINTS:	
!!@@END: SETTING
